!!!ONB: MCCC : IJH0159_01 : Extracted Monophonic Melody
!!!COM: Haydn, Joseph
!!!OPR: Divertimento in E-flat major
!!!OMV: 1
!!!SCT: Hob.II:6
!!!ODT: 1765///
**kern
*thru
*Ivioln
*k[b-e-a-]
*E-:
*clefF
*M2/4
4e-
8.f
32e-
32f
=1
4g
4r
=2
4g
8.a-
32g
32a-
=3
4b-
4r
=4
2ee-[
=5
8ee-]
8dd
8ee-
8ff
=6
8gg
8r
8aa-
8r
=7
8bb-
4r
8eee-
=8
8bb-
8eee-
8bb-
8eee-
=9
8bb-
8r
8e-
8r
=10
8f
8r
8d
8r
=11
8e-
4.r
=12
8a-
8r
8f
8r
=13
4e-
4r
=14
16d
16b-
16ff
16b-
8ff
8r
=15
16A
16f
16ee-
16f
8ee-
8r
=16
16B-
16f
16dd
16f
8dd
8r
=17
16A
16f
16cc
16f
8cc
8r
=18
16d
16b-
16ff
16b-
8ff
8r
=19
16A
16f
16ee-
16f
8ee-
8r
=20
16B-
16f
16dd
16f
8dd
8r
=21
16A
16f
16cc
16f
8cc
8r
=22
4.b-
8bb-
=23
8aa
8gg
8ff
8ee-
=24
8dd
8cc
8b-
8r
=25
2r
=26
4.r
8ddd
=27
8ccc
8bb-
8aa
8gg
=28
8ff
8ee-
8dd
8r
=29
2r
=30
4r
16bb-
16bb-
16bb-
16bb-
=31
16e-
16e-
16e-
16e-
16f
16f
16f
16f
=32
8g
8r
8ff
8r
=33
8gg
8r
8a
8r
=34
4b-
4r
=35
4ff
8.ee-
32dd
32ee-
=36
4dd
4r
=37
4bb-
8.aa-
32gg
32aa-
=38
4gg
4r
=39
4ee-
8.dd-
32cc
32dd-
=40
4cc
8r
8ccc
=41
8bb-
8gg
8ee-
8dd-
=42
8cc
8ee-
8r
8ccc
=43
8bb-
8gg
8ee-
8dd-
=44
8cc
8ee-
8r
8aa-
=45
8gg
8ee
8cc
8b-
=46
8a-
8cc
8r
8aa-
=47
8aa-
8ff
8dd
8a-
=48
8g
8ee-
8r
8bb-
=49
8ccc
8aa-
8ff
8ee-
=50
8dd
8bb-
8r
8b-
=51
8a-
8g
8f
8e-
=52
8B-
8b-
4r
=53
2bb-
=54
8bb-
8eee-
8bb-
8eee-
=55
2bb-
=56
8bb-
8ddd
8bb-
8ddd
=57
2bb-
=58
8bb-
8ddd-
8ddd-
8ddd-
=59
8ccc
8ee-
8ee-
8ee-
=60
8bb-
8ee-
8ee-
8ee-
=61
8dd
8ff
8ee-
8b-
=62
8dd
8ff
8ee-
8b-
=63
8a-
8f
8g
8e-
=64
4B-
8e-
8r
=65
8a-
8r
8g
8r
=66
4f
4r
=67
16d
16b-
16aa-
16b-
8aa-
8r
=68
16e-
16b-
16gg
16b-
8gg
8r
=69
16B-
16f
16dd
16f
8dd
8r
=70
16B-
16g
16ee-
16g
8ee-
8r
=71
16d
16b-
16aa-
16b-
8aa-
8r
=72
16e-
16b-
16gg
16b-
8gg
8r
=73
16B-
16f
16dd
16f
8dd
8r
=74
16B-
16g
16ee-
16g
8ee-
8r
=75
4.e-
8ee-
=76
8dd
8cc
8b-
8a-
=77
8g
8f
8e-
8r
=78
2r
=79
4.r
8gg
=80
8ff
8ee-
8dd
8cc
=81
8b-
8a-
8g
8r
=82
2r
=83
4r
16ee-
16ee-
16ee-
16ee-
=84
16A-
16A-
16A-
16A-
16B-
16B-
16B-
16B-
=85
8c
8r
8b-
8r
=86
8cc
8r
8d
8r
=87
4e-
4r
=88
4b-
8.a-
32g
32a-
=89
4g
4r
=90
8f
8r
8d
8r
=91
4e-
4r
==
*-
